X: 1
T: String Quartet in D Major opus 71 no 2 mvt 1
C: Franz Joseph Haydn
%%abc-version 2.0
%%abcx-abcm2ps-target-version 5.9.1 (29 Sep 2008)
%%abc-creator hum2abc beta
%%abcx-conversion-date 2021/02/14 14:38:33
%%abc-copyright Copyright (c) 1994, 2000 Center for Computer Assisted Research in the Humanities
%%abc-edited-by Frances Bennion
%%abcx-initial-encoding-date 1997/04/15
%%gracespace 0 6 6
%%humdrum-veritas 2245303224
%%humdrum-veritas-data 3840759279
%%linebreak <none>
%%barnumbers 0
L: 1/8
M: 4/4
N: Derived from op71n2-01.krn
Q: "Adagio---Allegro"
%%staves [1 2 3 4]
V: 1
V: 2
V: 3 clef=alto
V: 4 clef=bass
K: D
[V:1][dF]D EF G4 [I:setbarnb2] |
[V:2][FA,]D CD E4 |
[V:3][D,FA,]A,2 A, A,4 |
[V:4]D,,F, E,D, C,4 |
[V:1][A,eG]E FG2 <A2 d |
[V:2][A,G]C D[E2C2] <[A,2F2] A- |
[V:3][CE]A,2 G, F,D2 D,- |
[V:4]A,,G, F,E, D,A,, F,,2 |
[V:1]cB2 A2 G2 F- |
[V:2]AG2 F2 E2 D/C/ |
[V:3]D,2 >F,2 B,C DA,- |
[V:4]G,,B,, D,2 z3 D,, |
[V:1]F/E/^D/E/ F/G/A/B/ =D2 Ez |
[V:2]B,4 A,2 Cz |
[V:3]A,/G,/F,/G,/ ^D,/E,/F,/G,/ F,2 G,z |
[V:4]G,,4 A,,3 D, |
[V:1]z4 zd Df |
[V:2]z2 >A2 A,3 A |
[V:3]zF F,4- F,D |
[V:4]D,,7 D, |
[V:1]f2 ed c2 da |
[V:2]B4 A3 A |
[V:3]D^D E4 =DA, |
[V:4]G,6 F,F, |
[V:1][A2a2] gf [A2a2] gf |
[V:2]c2 >d2 c3 d |
[V:3]G,2 >A,2 G,3 A, |
[V:4]E,2 >D,2 E,3 D, |
[V:1]ed gf ea Az |
[V:2]cd cd c2 z2 |
[V:3]A,A AA A2 z2 |
[V:4]G,F, E,D, A,2 zD, |
[V:1]z4 zd Df |
[V:2]z2 >A2 A,3 A |
[V:3]zF F,4- F,D |
[V:4]D,,7 D, |
[V:1]f2 e^d d2 eb |
[V:2]B2 >=c2 c2 BG |
[V:3]D^D EF F2 GE |
[V:4]G,2 >A,2 A,2 G,z |
[V:1]d'=c' ba a/g/b/a/ g/f/a/g/ |
[V:2]F4 GE FB |
[V:3]^D4 EC =DG, |
[V:4]z8 |
[V:1]g/f/f/e/ e/d/d/c/ dC/D/ C/D/F/D/ |
[V:2]AG FE Dz2 A,- |
[V:3]A,4 Dz2 F, |
[V:4]z7 D, |
[V:1]CF/G/ F/G/B/G/ Fc/d/ c/d/f/d/ |
[V:2]A,2 zE F2 zA |
[V:3]G,2 zA, D2 zF |
[V:4]E,2 zC D2 z2 |
[V:1]cf/g/ f/g/b/g/ fc'/d'/ c'/d'/b/g/ |
[V:2]G2 zE F2 zG/B/ |
[V:3]E2 zC D2 zD, |
[V:4]z8 |
[V:1]f/d/z7 |
[V:2]A/F/c/d/ c/d/B/G/ F/D/d zD |
[V:3]D2 zG,/B,/ A,/F,/C/D/ C/D/B,/G,/ |
[V:4]z2 >D,,2 D,2 zG,/B,/ |
[V:1]zc'/d'/ c'/d'/b/g/ f/d/g/d/ a/d/b/d/ |
[V:2]dc/d/ c/d/B/G/ F/D/d zd |
[V:3]F,/D,/C/D/ C/D/B,/G,/ F,/D,/B,/D/ A,/D/G,/D/ |
[V:4]A,/F,/C,/D,/ C,/D,/B,,/G,,/ D,,4- |
[V:1]a/d/b/d/ a/d/b/d/ ad gf |
[V:2]zd zd zA cd |
[V:3]F,/D/G,/D/ F,/D/G,/D/ F,A, A,A, |
[V:4]D,,D,, D,,D,, D,,F, E,D, |
[V:1]e^g/a/ g/a/b/a/ =g/e/g/e/ f/d/f/d/ |
[V:2]c2 z2 ez dz |
[V:3]A,2 z2 Az Az |
[V:4]A,2 z2 Cz Dz |
[V:1]e2 <z2 [ec']z [d'f]z |
[V:2]c^g/a/ g/a/b/a/ =g/e/g/e/ f/d/f/d/ |
[V:3]A2 z2 A,/E/A,/E/ A,/F/A,/F/ |
[V:4]A,2 z2 A,,z A,,z |
[V:1][ec'][fd'] [c'e][fd'] [c'2e2] za |
[V:2][Ae][fA] [Ae][fA] [e2A2] z2 |
[V:3]AD/F/ AD/F/ A2 z2 |
[V:4]A,,A,, A,,A,, A,,2 z2 |
[V:1]A7 d' |
[V:2]zf F4- FB |
[V:3]z2 >c2 C3 ^G |
[V:4]z4 zF, F,,^E,, |
[V:1]db B^g ^G^e ^EB |
[V:2][^G8B8] |
[V:3]^E,7 C |
[V:4]^E,^G,, ^G,B,, B,C, CE, |
[V:1]Ac' ca Af Fe |
[V:2][A2F2] >[c2F2] [c4F4] |
[V:3]F,4 A,3 ^A, |
[V:4]F,A,, A,F,, F,A,, A,^A, |
[V:1]^d/e/f/^g/ a/g/f/e/ d/e/f/g/ a/g/f/e/ |
[V:2][B2F2] zA, A2 zA, |
[V:3]B,2 zE F2 zE |
[V:4]B,2 z=C B,2 zC |
[V:1]^d/e/f/^g/ a/g/f/e/ d/e/f/e/ d/c/B/A/ |
[V:2]A8 |
[V:3]F8 |
[V:4]B,8 |
[V:1]^G/^g/b/a/ g/f/e/^d/ e/g/b/a/ g/f/e/d/ |
[V:2]^G2 zF E2 zF |
[V:3]E2 z=C B,2 zC |
[V:4]E,2 zA, ^G,2 zA, |
[V:1]e/b/d'/c'/ b/a/^g/f/ e/g/b/a/ g/f/e/d/ |
[V:2]E4 [d4E4] |
[V:3]B,8 |
[V:4]^G,8 |
[V:1]cf2 <e2 f e2- |
[V:2][c2E2] zA2 <^G2 A |
[V:3]A,2 zE2 <D2 E |
[V:4]A,2 zC B,2 zC |
[V:1]e/f/e/f/ e2- e/f/e/f/ e2- |
[V:2]^G2- G/A/G/A/ G2- G/A/G/A/ |
[V:3]D2- D/E/D/E/ D2- D/E/D/E/ |
[V:4]B,2- B,/C/B,/C/ B,2- B,/C/B,/C/ |
[V:1]e/f/e/f/ e/f/e/f/ e/f/^g/a/ b/c'/d'/b/ |
[V:2]^GA GA2 <G2 b |
[V:3]DE DE2 <D2 B,/E/ |
[V:4]B,C B,C2 <B,2 ^G, |
[V:1]c'/d'/e'/c'/ a/b/c'/a/ f/^g/a/f/ d/e/f/d/ |
[V:2]aA fF dD z2 |
[V:3]E2 z4 ^G^G, |
[V:4]A,2 z6 |
[V:1]c/d/e/c/ A/B/c/A/ F/^G/A/F/ D/F/E/D/ |
[V:2]z8 |
[V:3]AA, FF, DD, z2 |
[V:4]z6 ^G,^G,, |
[V:1]C/D/C/B,/ A,/F/E/D/ C/A/^G/F/ E/d/c/B/ |
[V:2]z2 z/D/C/B,/ A,/E/D/C/ B,/A/^G/F/ |
[V:3]z4 z/C/B,/A,/ ^G,/F/E/D/ |
[V:4]A,,A, z6 |
[V:1]A/f/e/d/ c/f/e/d/ c/a/^g/f/ e/a/g/f/ |
[V:2]E/d/c/B/ A/d/c/B/ A/e/d/c/ B/e/d/c/ |
[V:3]C/E/F/^G/ A/E/F/G/ A/c/B/A/ G/c/B/A/ |
[V:4]z4 z/A,/B,/C/ D/A,/B,/C/ |
[V:1]e8 |
[V:2]B4 ^A4 |
[V:3]^G4 =G4 |
[V:4]D4 C4 |
[V:1]d>e fd cz Bz |
[V:2]B>c dB Az ^Gz |
[V:3]F>E DF Ez Dz |
[V:4]D>C B,D Ez E,z |
[V:1]=f8 |
[V:2]B8 |
[V:3]^G4 =G4- |
[V:4]D8 |
[V:1]e2 d2 =c2 B2 |
[V:2]=c2 B2 A2 ^G2 |
[V:3]G2 =F2 ^F2 ^G2 |
[V:4]=C2 D2 ^D2 E2 |
[V:1]cc dc/d/ BB e2 |
[V:2]AA BB ^GG z2 |
[V:3]EE FF EE z2 |
[V:4]A,A, D,D, E,E, z2 |
[V:1]cc dc/d/ BB E2 |
[V:2]AA BB ^GG z2 |
[V:3]EE FF EE z2 |
[V:4]A,A, D,D, E,E, z2 |
[V:1]AA a^g/a/ ff d'2 |
[V:2]A,A, EE FF z^G |
[V:3]EE A,A, A,A, zE |
[V:4]CC C,C, D,D, zB,, |
[V:1]c'/e'/c'/a/ b/d'/b/^g/ a2 z2 |
[V:2]A/c/e/c/ d/B/^G/B/ A/C/D/E/ F/G/A/B/ |
[V:3]EE DD C/A,/B,/C/ D/E/F/^G/ |
[V:4]A,,A,, E,E, A,,2 z2 |
[V:1]ze' zf' zd'/b/ ^ge |
[V:2]cc dc/d/ BB e2 |
[V:3]AA zD/B/ ^GG ze |
[V:4]A,z D,z E,2 z2 |
[V:1]ze' zf' zd'/b/ ^ge |
[V:2]cc dc/d/ BB E2 |
[V:3]AA zD/B/ ^GG ze |
[V:4]A,z D,z E,2 z2 |
[V:1]ze'/c'/ a^g/a/ ff d'2 |
[V:2]zA ze zf z^g |
[V:3]AA zA zA zE |
[V:4]Cz C,z D,z B,,z |
[V:1]c'/e'/c'/a/ b/d'/b/^g/ a4- |
[V:2]a2 ze a/c'/a/e/ f/a/f/d/ |
[V:3]e/c/e/c/ d/B/^G/B/ A2 z2 |
[V:4]A,,z E,z A,,2 z2 |
[V:1]a8- |
[V:2]e/a/e/c/ d/f/d/B/ c/e/c/A/ d/f/d/B/ |
[V:3]z4 A/c/A/E/ F/A/F/D/ |
[V:4]z8 |
[V:1]a8 |
[V:2]c/e/c/A/ B/d/B/^G/ A4 |
[V:3]E/A/E/C/ D/F/D/B,/ C/E/C/A,/ D/F/D/B,/ |
[V:4]z4 A,/C/A,/E,/ F,/A,/F,/D,/ |
[V:1]e'z d'z c'z bz/a/ |
[V:2]c'z bz az ^gz |
[V:3]A,z Fz Ez Dz |
[V:4]C,/E,/A,/C/ D,/F,/B,/D/ E,z E,z |
[V:1]A2 >a2 A3 a |
[V:2]zA A,2 zA A,2 |
[V:3]zE, E2 zF, F2 |
[V:4]zC, C2 zD, D2 |
[V:1]A2 >a2 Aa Aa |
[V:2]zA A,6 |
[V:3]zG, G6 |
[V:4]zE, E6 |
[V:1]Ag Gf Fe Ed |
[V:2]z8 |
[V:3]z8 |
[V:4]z8 |
[V:1]D=c DB DA Gz |
[V:2]A,2 B,2 =C2 B,2 |
[V:3]F,2 G,2 A,2 B,2 |
[V:4]D,7 D |
[V:1]A2 B2 =c2 B2 |
[V:2]F2 G2 AF GB |
[V:3]D,6 G,2 |
[V:4]D,=C D,B, D,A, G,z |
[V:1]z7 B |
[V:2]B,A B,G B,F Ez |
[V:3]F2 G2 ^D2 E2 |
[V:4]^D,2 E,2 A,2 G,2 |
[V:1]^dB eB aB ga |
[V:2]A2 G2 ^d2 ef |
[V:3]F2 E2 F2 EB, |
[V:4]B,,6 E,^D, |
[V:1]Gg Ff Ee Dd |
[V:2]ee dd cc BB |
[V:3]E2 z6 |
[V:4]E,6 ^E,2 |
[V:1]c2 ^A2 B2 b2 |
[V:2]^A2 f4 e2- |
[V:3]z6 B2 |
[V:4]F,F, F,E,/F,/ G,G GF/G/ |
[V:1]aa a^g/a/ g4 |
[V:2]e2 ^d2 =dd dc/d/ |
[V:3]=c2 BB B2 BA/B/ |
[V:4]F4 E4 |
[V:1]gg gf/g/ f4 |
[V:2]c6 B2- |
[V:3]eE ED/E/ DD GF/G/ |
[V:4]A,4 D2 z2 |
[V:1]e4 dd dc/B/ |
[V:2]B2 ^A2 BB BA/B/ |
[V:3]CC FE/F/ B,2 ^E,2 |
[V:4]z8 |
[V:1]^A^E/F/ E/F/E/F/ AG/F/ G/F/G/F/ |
[V:2]^A2 z2 F2 z2 |
[V:3]F,2 z2 C2 z2 |
[V:4]F,2 z2 E,2 z2 |
[V:1]B^E/F/ E/F/E/F/ cG/F/ G/F/G/F/ |
[V:2]F2 z2 F2 z2 |
[V:3]B,2 z2 E2 z2 |
[V:4]D,2 z2 ^A,,2 z2 |
[V:1]d^A/B/ A/B/d/B/ A^d/e/ d/e/g/e/ |
[V:2]F2 zF E2 zc |
[V:3]D2 zD C2 z^A |
[V:4]B,,2 z6 |
[V:1]d^a/b/ a/b/d'/b/ gb/g/ eg/e/ |
[V:2]d^A/B/ A/B/d/B/ GB/G/ EG/E/ |
[V:3]B^A/B/ A/B/d/B/ GB/G/ EG/E/ |
[V:4]z^A,/B,/ A,/B,/D/B,/ G,B,/G,/ E,G,/E,/ |
[V:1]cz gz fz ^Az |
[V:2]Cz ez dz cz |
[V:3]Cz Cz Fz Ez |
[V:4]C,z E,z F,z F,,z |
[V:1]B^A/B/ A/B/d/B/ GB/G/ EG/E/ |
[V:2]B^A/B/ A/B/d/B/ GB/G/ EG/E/ |
[V:3]D^A/B/ A/B/d/B/ GB/G/ EG/E/ |
[V:4]G,,^A,/B,/ A,/B,/D/B,/ G,B,/G,/ E,G,/E,/ |
[V:1]CA,/B,/ C/D/E/F/ GA/B/ c/d/e/f/ |
[V:2]CA,/B,/ C/D/E/F/ EG/F/ E/D/C/B,/ |
[V:3]CA,/B,/ C/D/E/D/ CC/D/ E/F/E/D/ |
[V:4]C,A,,/B,,/ C,/D,/E,/F,/ [A,,G,]z3 |
[V:1]gB/A/ G/F/E/D/ Cc/d/ e/f/g/a/ |
[V:2]A,G/F/ E/D/C/B,/ A,A/B/ c/d/e/f/ |
[V:3]CC,/D,/ E,/F,/G,/F,/ G,E/F/ G/F/E/D/ |
[V:4]A,,A,,/B,,/ C,/D,/E,/F,/ G,G/F/ E/D/C/B,/ |
[V:1]bB gE eC cG, |
[V:2]g2 z6 |
[V:3]C2 z6 |
[V:4]A,2 z4 zD, |
[V:1]z4 zd Df |
[V:2]z2 >A2 A,3 A |
[V:3]zF F,4- F,D |
[V:4]D,,7 D, |
[V:1]f2 ed c2 da |
[V:2]B4 A3 A |
[V:3]D^D E4 =DA, |
[V:4]G,6 F,F, |
[V:1][a2A2] gf [a2A2] gf |
[V:2]c2 >d2 c3 d |
[V:3]G,2 >A,2 G,3 A, |
[V:4]E,2 >D,2 E,3 D, |
[V:1]ed gf ea Az |
[V:2]cd cd c2 z2 |
[V:3]A,A AA A2 z2 |
[V:4]G,F, E,D, A,2 zD,, |
[V:1]z4 zD d2 |
[V:2]z2 >_B,2 _B4 |
[V:3]z=F, =F6 |
[V:4]D,7 E,, |
[V:1]z4 z_B _b2 |
[V:2]z2 >G2 g4 |
[V:3]zC c6 |
[V:4]E,7 F,, |
[V:1]z4 z=c =c'2 |
[V:2]z2 >A2 a4 |
[V:3]z_E _e6 |
[V:4]F,7 G,, |
[V:1]z4 zG g_B |
[V:2]z2 >D2 d4- |
[V:3]z_B, _B6- |
[V:4]G,8- |
[V:1]_b2 >a2 g=f ed |
[V:2]dg2 =f ed cd |
[V:3]B_B _B,4- B,=B, |
[V:4]G,G,, G,4- G,^G, |
[V:1]cd2 <e2 f g2- |
[V:2]AB2 <c2 d e2- |
[V:3]C2 >D2 E3 F |
[V:4]A,2 >B,2 C3 D |
[V:1]gf ed cb ag |
[V:2]ed cB Ag fe |
[V:3]G4- GC DE |
[V:4]E4- EA, B,C |
[V:1]fb2 <a2 b a2- |
[V:2]d2 zd2 <c2 d |
[V:3]F2 zA2 <G2 A |
[V:4]D2 zF2 <E2 F |
[V:1]a/b/a/b/ a2- a/b/a/b/ a2- |
[V:2]c2- c/d/c/d/ c2- c/d/c/d/ |
[V:3]G2- G/A/G/A/ G2- G/A/G/A/ |
[V:4]E2- E/F/E/F/ E2- E/F/E/F/ |
[V:1]a/b/a/b/ a/b/a/b/ a/b/c'/d'/ e'/f'/g'/e'/ |
[V:2]cd cd2 <c2 e' |
[V:3]GA GA2 <G2 E/A/ |
[V:4]EF EF2 <E2 C |
[V:1]f'/g'/a'/f'/ d'/e'/f'/d'/ b/c'/d'/b/ g/a/b/g/ |
[V:2]d'd bB gG z2 |
[V:3]A2 z4 cC |
[V:4]D2 z6 |
[V:1]f/g/a/f/ d/e/f/d/ B/c/d/B/ G/B/A/G/ |
[V:2]z8 |
[V:3]dD BB, GG, z2 |
[V:4]z6 CC, |
[V:1]F/G/F/E/ D/B/A/G/ F/d/c/B/ A/g/f/e/ |
[V:2]z2 z/G/F/E/ D/A/G/F/ E/d/c/B/ |
[V:3]z4 z/F/E/D/ C/B/A/G/ |
[V:4]D,D z6 |
[V:1]d/b/a/g/ f/b/a/g/ f/d'/c'/b/ a/d'/c'/b/ |
[V:2]A/g/f/e/ d/g/f/e/ d/a/g/f/ e/a/g/f/ |
[V:3]F/A/B/c/ d/A/B/c/ d/f/e/d/ c/f/e/d/ |
[V:4]z4 z/D/E/F/ G/D/E/F/ |
[V:1]a8 |
[V:2]e4 ^d4 |
[V:3]c4 =c4 |
[V:4]G4 F4 |
[V:1]g>a bg fz ez |
[V:2]e>f ge dz cz |
[V:3]B>A GB Az Gz |
[V:4]G>F EG Az A,z |
[V:1]_b8 |
[V:2]e8 |
[V:3]c4 =c4- |
[V:4]G8 |
[V:1]a2 g2 =f2 e2 |
[V:2]=f2 e2 d2 c2 |
[V:3]c2 _B2 =B2 c2 |
[V:4]=F2 G2 ^G2 A2 |
[V:1]d2 z6 |
[V:2]ff gf/g/ ee a2 |
[V:3]dA B4 A2- |
[V:4]D4 C4 |
[V:1]z4 aa ba/b/ |
[V:2]dd ed/e/ cz FF |
[V:3]A2 ^G2 Az ^DD |
[V:4]B,4 A,,4- |
[V:1]gg e'2 ff gf/g/ |
[V:2]GF/G/ EE F2 DD |
[V:3]E^D/E/ CC =D2 B,B, |
[V:4]A,,8- |
[V:1]ee c'2 dd ed/e/ |
[V:2]ED/E/ CC2 <D2 ^G |
[V:3]CB,/C/ A,A, B,4 |
[V:4]A,,8- |
[V:1]c/d/e/f/ g/f/e/d/ c/d/e/d/ c/B/A/G/ |
[V:2]A4 G4 |
[V:3][C8E8] |
[V:4]A,,8 |
[V:1]F/D/F/A/ =c/d/f/a/ =c'/a/c'/a/ g/f/a/A/ |
[V:2]F4 A4 |
[V:3][F4A,4] [F,4A,4] |
[V:4]D,8 |
[V:1]B/b/=c/=c'/ B/b/A/a/ G/g/F/f/ E/e/D/d/ |
[V:2]BA B=c BA GF |
[V:3][F,4A,4] G,3 ^G, |
[V:4]^D,4 E,4 |
[V:1]C/c/B,/B/ A,/A/^G,/^G/ A,/A/G,/G/ A,/A/=G,/=G/ |
[V:2]EF G^G AG A=G |
[V:3]A,G, F,^E, F,E, F,=E, |
[V:4]A,,8 |
[V:1]F/A/d/A/ G/c/e/c/ A/d/f/d/ B/e/g/e/ |
[V:2]Fd zc zd ze |
[V:3]D,F zG zA zB |
[V:4]zD, zE, zF, zG, |
[V:1]f/d/e/f/ g/a/b/c'/ d'/a/f'/d'/ a'z/d/ |
[V:2]d2 z6 |
[V:3]A2 z6 |
[V:4]A,2 z6 |
[V:1]e8 |
[V:2]c8 |
[V:3]G/F/G/F/ G/A/B/A/ G/F/E/D/ C/B,/A,/G,/ |
[V:4]A,,8 |
[V:1]ff gf/g/ ee a2 |
[V:2]dd ee cc z2 |
[V:3]F,A BB AA z2 |
[V:4]DD G,G, A,A, z2 |
[V:1]ff gf/g/ ee A2 |
[V:2]dd ee cc z2 |
[V:3]AA BB AA z2 |
[V:4]DD G,G, A,A, z2 |
[V:1]dd d'c'/d'/ bb g'2 |
[V:2]DD AA BB zc |
[V:3]AA DD DD zA |
[V:4]F,,F,, F,F, G,G, zE, |
[V:1]f'/a'/f'/d'/ e'/g'/e'/c'/ d'2 z2 |
[V:2]d/f/a/f/ g/e/c/e/ d/f/e/d/ c/B/A/G/ |
[V:3]AA GG F/d/c/B/ A/G/F/E/ |
[V:4]D,D, A,A, D,2 z2 |
[V:1]za zb zg/e/ cA |
[V:2]FF GF/G/ EE A2 |
[V:3]DD zG,/E/ CC zA |
[V:4]D,z G,,z A,,2 z2 |
[V:1]za zb zg/e/ cA |
[V:2]FF GF/G/ EE A,2 |
[V:3]DD zG,/E/ CC zA |
[V:4]D,z G,,z A,,2 z2 |
[V:1]za/f/ dc/d/ BB g2 |
[V:2]zD zA zB zc |
[V:3]DD zD zD zA |
[V:4]F,,z F,z G,z2 E, |
[V:1]f/a/f/d/ e/g/e/c/ d4- |
[V:2]d2 za a/d'/a/f/ b/d'/b/g/ |
[V:3]A/F/A/F/ G/E/C/E/ D2 z2 |
[V:4]D,z A,,z D,2 z2 |
[V:1]d8- |
[V:2]a/d'/a/f/ g/b/g/e/ f/a/f/d/ g/b/g/e/ |
[V:3]z4 d/f/d/A/ B/d/B/G/ |
[V:4]z8 |
[V:1]d8 |
[V:2]f/a/f/d/ e/g/e/c/ d4 |
[V:3]A/d/A/F/ G/B/G/E/ F/A/F/D/ G/B/G/E/ |
[V:4]z4 D,/F,/D,/A,,/ B,,/D,/B,,/G,,/ |
[V:1]az gz fz ez |
[V:2]fz ez dz cz |
[V:3]Dz Bz Az Gz |
[V:4]F,,/A,,/D,/F,/ G,,/B,,/E,/G,/ A,,z2 B,, |
[V:1]z4 z^G ^g2 |
[V:2]z2 >=F2 =f4 |
[V:3]zD d6 |
[V:4]B,7 C, |
[V:1]z4 zA a2- |
[V:2]z2 >G2 g3 G, |
[V:3]zE e4- eE, |
[V:4]C7 C, |
[V:1]a_B2 <_b2 =B =bB |
[V:2]G2 >G,2 G4- |
[V:3]E2 >E,2 E4- |
[V:4]C2 >C,2 C4- |
[V:1]b7 a |
[V:2]GG, GG, G4- |
[V:3]EE, EE, E4- |
[V:4]CC, CC, C4- |
[V:1]gf ed cB AG |
[V:2]G2 z6 |
[V:3]E2 z6 |
[V:4]C2 z6 |
[V:1]FF GF/G/ EE A2 |
[V:2]z4 ze/d/ c/B/A/c/ |
[V:3]A,2 B,4 A,2- |
[V:4]D,4 C,4 |
[V:1]DD ED/E/ CC F2 |
[V:2]d2 z3 c/B/ A/G/F/A/ |
[V:3]A,2 G,4 F,2- |
[V:4]B,,4 A,,4 |
[V:1]B,B, CB,/C/ A,B,/C/ DE/F/ |
[V:2]B2 z3 A/G/ F/E/D/F/ |
[V:3]F,2 E,4 D,2 |
[V:4]G,,4 F,,4 |
[V:1]Gz Fz Ez Cz |
[V:2]Cz Dz B,z G,z |
[V:3]A,z A,z G,z E,z |
[V:4]E,,z D,,z F,,z2 D, |
[V:1]z4 zd DF |
[V:2]z2 >A2 A,3 F |
[V:3]zF F,4- F,F, |
[V:4]D,,7 F,, |
[V:1]fA ad d'z3 |]
[V:2]fA ad d'z3 |]
[V:3]FA, AD dz3 |]
[V:4]F,A,, A,D, Dz3 |]

